assets/Leftwards hand/Medium-Light/Flat/leftwards_hand_flat_medium-light.svg

<svg width="32" height="32" viewBox="0 0 32 32" fill="none" xmlns="http://www.w3.org/2000/svg">
<path d="M7.26562 25.1561C7.26562 23.8749 8.125 23.2108 8.125 23.2108H6.20312C5.16489 23.2108 4.23437 22.21 4.23437 21.1718C4.23437 19.2186 5.39062 18.8905 5.39062 18.8905C5.39062 18.8905 4.48437 18.8749 3.70312 18.7343C2.92187 18.5936 1.96875 17.6006 1.96875 16.5624C1.96875 14.6191 3.50781 13.8827 5.1875 14.0077C5.1875 14.0077 4.125 13.3593 4.125 11.953C4.125 10.9148 5.10938 9.46082 7.02344 9.63269L14.5781 9.99207C14.5781 9.99207 13.0114 8.95533 12.5 8.07792C11.9886 7.2005 12.0115 5.88774 12.7812 5.17172C13.6861 4.32991 15.1042 4.17691 15.9688 4.78102C18.5625 6.59351 21.9511 9.1661 23.5312 9.65607C27.5625 10.9061 29.9821 14.5624 29.9821 17.9686C29.9821 22.078 26.8841 26.3918 22.1094 26.7343L9.98437 27.4452C8.9375 27.5233 7.26562 26.7108 7.26562 25.1561Z" fill="#EEBFAA"/>
<path fill-rule="evenodd" clip-rule="evenodd" d="M12.2269 6.14258C12.2978 6.61789 12.5101 7.12519 13 7.50012C13.7165 8.04847 15.3092 9.00764 16.2544 9.56497L16.9451 9.96848L17 10.0001L16.9993 10.0001L19.0039 11.1711C19.249 11.3144 19.3259 11.6328 19.173 11.8721L18.9423 12.2332C18.9301 12.2564 18.916 12.2788 18.9 12.3001L18.8973 12.3036L18.5974 12.7731C18.27 13.3694 18 14.1787 18 15.0626C18 16.1859 18.4347 17.4615 19.8201 18.6159C20.0322 18.7927 20.0609 19.108 19.8841 19.3201C19.7073 19.5323 19.392 19.5609 19.1799 19.3842C17.5652 18.0386 17 16.4809 17 15.0626C17 13.9164 17.3682 12.8824 17.8078 12.1395L14.5387 9.96015L14.5307 9.96002C14.4927 9.93417 14.4336 9.89336 14.3586 9.84008L14.356 9.83832C14.1601 9.69895 13.8581 9.47541 13.547 9.21196L13.5469 9.21176C13.1421 8.86887 12.7218 8.45839 12.5 8.07788C12.1751 7.5203 12.0658 6.78691 12.2269 6.14258ZM7.80202 26.5324C8.628 26.4941 9.43324 26.4581 10.2234 26.4227L10.2254 26.4226C14.59 26.2273 18.4941 26.0527 22.8912 25.6222C27.0746 25.2126 29.2128 20.3796 29.9799 18.1583C29.8864 22.2097 26.8107 26.397 22.1094 26.7342L9.98439 27.4451C9.31189 27.4953 8.38147 27.178 7.80202 26.5324ZM11.5101 18.0001L2.41062 17.8165C2.75916 18.2992 3.25892 18.6547 3.70312 18.7347C4.09517 18.8053 4.5187 18.8444 4.84338 18.8658L11.4899 18.9999C11.766 19.0054 11.9943 18.7861 11.9999 18.51C12.0055 18.2339 11.7862 18.0056 11.5101 18.0001ZM4.3467 13.0001H12.5C12.7761 13.0001 13 13.224 13 13.5001C13 13.7762 12.7761 14.0001 12.5 14.0001H5.17547C5.09508 13.9475 4.63043 13.6238 4.3467 13.0001ZM4.60089 14.0001H5.06311C4.90714 13.9924 4.75269 13.9923 4.60089 14.0001ZM4.96113 21.9797C4.69609 21.9216 4.49721 21.8626 4.34848 21.8084C4.62745 22.5844 5.38157 23.2111 6.20314 23.2111H6.92616L13.5092 23.0896C13.7853 23.0845 14.005 22.8565 13.9999 22.5804C13.9948 22.3044 13.7669 22.0847 13.4908 22.0898C13.4908 22.0898 6.83023 22.39 4.96113 21.9797Z" fill="#D6A089"/>
</svg>

<svg xmlns="http://www.w3.org/2000/svg" width="32" height="32" fill="none"><path fill="#EEBFAA" d="M7.266 25.156c0-1.281.859-1.945.859-1.945H6.203c-1.038 0-1.969-1.001-1.969-2.04 0-1.952 1.157-2.28 1.157-2.28s-.907-.016-1.688-.157c-.781-.14-1.734-1.133-1.734-2.172 0-1.943 1.539-2.68 3.218-2.554 0 0-1.062-.649-1.062-2.055 0-1.038.984-2.492 2.898-2.32l7.555.36S13.011 8.954 12.5 8.077c-.511-.877-.489-2.19.281-2.906.905-.842 2.323-.995 3.188-.391 2.594 1.813 5.982 4.385 7.562 4.875 4.032 1.25 6.451 4.906 6.451 8.313 0 4.109-3.098 8.423-7.873 8.765l-12.125.711c-1.046.078-2.718-.734-2.718-2.289Z"/><path fill="#D6A089" fill-rule="evenodd" d="M12.227 6.143c.07.475.283.982.773 1.357.716.548 2.31 1.508 3.254 2.065l.691.403L17 10l2.004 1.171a.5.5 0 0 1 .169.701l-.23.361a.495.495 0 0 1-.043.067l-.003.004-.3.47A4.848 4.848 0 0 0 18 15.062c0 1.123.435 2.399 1.82 3.553a.5.5 0 0 1-.64.768C17.565 18.04 17 16.481 17 15.063c0-1.147.368-2.18.808-2.924l-3.27-2.179h-.007a10.581 10.581 0 0 1-.172-.12l-.003-.002c-.196-.139-.498-.363-.809-.626-.405-.343-.825-.754-1.047-1.134a2.673 2.673 0 0 1-.273-1.935Zm-4.425 20.39c.826-.039 1.631-.075 2.421-.11h.002c4.365-.196 8.27-.37 12.666-.8 4.184-.41 6.322-5.243 7.089-7.465-.094 4.052-3.17 8.239-7.87 8.576l-12.126.711c-.672.05-1.603-.267-2.182-.913ZM11.51 18l-9.1-.183c.35.482.849.838 1.293.918.392.07.816.11 1.14.13L11.49 19a.5.5 0 0 0 .02-1Zm-7.163-5H12.5a.5.5 0 0 1 0 1H5.175a2.46 2.46 0 0 1-.828-1Zm.254 1h.462a4.597 4.597 0 0 0-.462 0Zm.36 7.98a4.812 4.812 0 0 1-.613-.172c.28.776 1.034 1.403 1.855 1.403h.723l6.583-.121a.5.5 0 0 0-.018-1s-6.66.3-8.53-.11Z" clip-rule="evenodd"/></svg>
